<?xml version="1.0" encoding="UTF-8"?>
<map version="1.10" tiledversion="1.11.1" orientation="orthogonal" renderorder="right-down" width="32" height="24" tilewidth="32" tileheight="32" infinite="0" nextlayerid="11" nextobjectid="1">
 <editorsettings>
  <export target="map1.tmj" format="json"/>
 </editorsettings>
 <tileset firstgid="1" source="TX Tileset Grass.tsx"/>
 <tileset firstgid="65" source="TX Struct.tsx"/>
 <tileset firstgid="321" source="TX Tileset Wall.tsx"/>
 <tileset firstgid="577" source="TX Tileset Stone Ground.tsx"/>
 <tileset firstgid="641" source="TX Props.tsx"/>
 <tileset firstgid="897" source="TX Plant with Shadow.tsx"/>
 <layer id="2" name="Base" width="32" height="24">
  <data encoding="csv">
28,10,13,19,2,17,26,19,17,20,3,12,2,28,25,3,3,6,19,10,23,19,31,17,24,26,11,14,10,19,18,16,
29,19,31,10,9,28,18,30,31,10,19,10,30,6,32,32,2,17,19,32,13,17,10,13,28,20,17,31,1,19,20,21,
12,18,25,20,2,17,32,29,27,8,30,17,12,27,27,22,4,28,1,20,24,27,21,18,13,32,20,12,9,5,6,5,
19,11,2,1,7,17,28,19,27,27,1,15,23,26,2,16,16,22,21,19,17,27,28,25,14,3,28,3,19,15,4,27,
24,2,26,28,30,24,27,24,29,10,27,10,22,21,5,20,31,29,4,27,19,9,9,5,14,12,16,8,19,21,27,17,
10,4,1,25,2,28,9,26,25,4,28,13,17,27,18,29,17,11,9,11,32,20,28,2,32,11,28,28,10,24,12,13,
12,11,5,4,5,28,22,17,7,9,16,31,18,17,30,27,24,27,31,8,28,2,28,30,4,2,15,28,27,25,18,4,
13,25,17,25,28,17,28,12,21,23,30,26,19,6,13,3,27,22,12,20,20,8,17,18,17,10,8,6,4,29,28,9,
7,16,16,22,12,22,24,24,5,8,4,12,26,18,8,31,13,28,31,12,2,26,25,26,7,12,19,29,24,24,1,13,
8,29,8,18,28,10,27,5,21,1,11,20,11,3,21,4,11,28,27,27,19,10,25,8,27,4,3,23,10,9,25,4,
19,19,18,20,22,24,13,16,21,30,26,16,8,24,20,30,27,31,18,28,22,10,18,4,14,21,27,20,19,25,1,18,
18,3,3,3,18,10,27,2,25,12,25,30,1,28,8,6,29,19,20,25,30,17,26,8,7,11,30,8,12,26,8,19,
32,5,17,4,15,28,12,12,3,12,22,6,23,1,24,11,2,30,17,19,18,21,26,20,8,17,32,29,12,27,11,11,
11,10,7,9,6,28,30,30,18,27,1,18,10,6,19,32,7,28,18,18,21,18,20,1,17,1,31,4,2,31,32,1,
1,11,19,27,4,10,9,20,18,9,4,17,15,23,28,42,34,34,49,58,34,42,57,58,42,33,58,57,50,58,41,34,
28,22,25,4,11,4,23,11,9,34,34,20,12,2,13,58,34,33,58,33,49,49,49,33,57,58,34,50,42,34,41,33,
12,32,21,10,17,9,25,8,20,41,57,8,19,5,14,50,34,1,17,2,8,10,4,16,28,18,8,24,16,3,13,18,
22,27,28,25,19,26,12,26,25,49,33,16,27,12,10,58,41,31,11,31,19,7,27,29,12,3,2,14,29,30,10,26,
25,8,11,1,10,12,24,25,17,49,34,50,50,58,42,34,34,29,9,18,14,18,17,8,17,10,8,16,7,11,22,4,
29,11,27,27,10,17,1,19,11,49,58,42,33,50,50,33,34,29,10,11,12,32,3,18,12,6,19,28,31,10,25,18,
21,26,15,15,12,11,14,7,27,22,2,14,25,13,30,33,41,13,1,14,22,11,4,16,17,10,28,22,1,30,27,23,
13,30,3,19,12,29,17,20,32,9,17,13,15,19,15,33,42,1,24,22,28,3,1,8,27,28,27,15,24,28,26,14,
20,20,3,28,27,3,11,26,20,28,31,4,12,4,15,33,57,18,1,9,1,8,32,28,8,32,2,19,18,3,6,9,
22,10,9,3,27,29,17,9,27,14,26,3,15,12,18,50,49,19,19,20,10,10,26,29,28,26,9,28,25,6,5,10
</data>
 </layer>
 <layer id="6" name="layer2" width="32" height="24">
  <data encoding="csv">
0,0,0,0,0,586,586,586,586,586,586,586,586,586,586,0,0,0,0,0,0,0,0,0,0,0,0,0,0,0,0,0,
0,0,0,0,0,586,586,586,586,586,586,586,586,586,586,0,0,0,0,0,0,0,0,0,0,0,0,0,0,0,0,0,
0,0,0,0,0,586,586,586,586,586,586,586,586,586,586,0,0,0,0,0,0,0,0,0,0,0,0,0,0,0,0,0,
0,0,0,0,0,586,586,586,586,586,586,586,586,586,586,0,0,0,0,0,0,0,0,0,0,0,0,0,0,0,0,0,
0,0,0,0,0,586,586,586,586,586,586,586,586,586,586,0,0,0,0,0,0,0,0,0,0,0,0,0,0,0,0,0,
0,0,0,0,0,586,586,586,586,586,586,586,586,586,586,0,0,0,0,0,0,0,0,0,0,0,0,0,0,0,0,0,
0,0,0,0,0,586,586,586,586,586,586,586,586,586,586,0,0,0,0,0,0,0,0,0,0,0,0,0,0,0,0,0,
0,0,0,0,0,586,586,586,586,586,586,586,586,586,586,0,0,0,0,0,0,0,0,0,0,0,0,0,0,0,0,0,
0,0,0,0,0,586,586,586,586,586,586,586,586,586,586,0,0,0,0,0,0,0,0,0,0,0,0,0,0,0,0,0,
0,0,0,0,0,586,586,586,586,586,586,586,586,586,586,0,0,0,0,0,0,0,0,0,0,0,0,0,0,0,0,0,
0,0,0,0,0,586,586,586,586,586,586,586,586,586,586,0,0,0,0,0,0,0,0,0,0,0,0,0,0,0,0,0,
0,0,0,0,0,586,586,586,586,57,58,586,586,586,586,0,0,0,0,0,0,0,0,0,0,0,0,0,0,0,0,0,
0,0,0,0,0,0,0,0,0,0,0,0,0,0,0,0,0,0,0,0,0,0,0,0,0,0,0,0,0,0,0,0,
0,0,0,0,0,0,0,0,0,0,0,0,0,0,0,0,0,0,0,0,0,0,0,0,0,0,0,0,0,0,0,0,
0,0,0,0,0,0,0,0,0,0,0,0,0,0,0,0,0,0,0,0,0,0,0,0,0,0,0,0,0,0,0,0,
0,0,0,0,0,0,0,0,0,0,0,0,0,0,0,0,0,0,0,0,0,0,0,0,0,0,0,0,0,0,0,0,
0,0,0,0,0,0,0,0,0,0,0,0,0,0,0,0,0,0,0,0,0,0,0,0,0,0,0,0,0,0,0,0,
0,0,0,0,0,0,0,0,0,0,0,0,0,0,0,0,0,0,0,0,0,0,0,0,0,0,0,0,0,0,0,0,
0,0,0,0,0,0,0,0,0,0,0,0,0,0,0,0,0,0,0,0,0,0,0,0,0,0,0,0,0,0,0,0,
0,0,0,0,0,0,0,0,0,0,0,0,0,0,0,0,0,0,0,0,0,0,0,0,0,0,0,0,0,0,0,0,
0,0,0,0,0,0,0,0,0,0,0,0,0,0,0,0,0,0,0,0,0,0,0,0,0,0,0,0,0,0,0,0,
0,0,0,0,0,0,0,0,0,0,0,0,0,0,0,0,0,0,0,0,0,0,0,0,0,0,0,0,0,0,0,0,
0,0,0,0,0,0,0,0,0,0,0,0,0,0,0,0,0,0,0,0,0,0,0,0,0,0,0,0,0,0,0,0,
0,0,0,0,0,0,0,0,0,0,0,0,0,0,0,0,0,0,0,0,0,0,0,0,0,0,0,0,0,0,0,0
</data>
 </layer>
 <layer id="3" name="walls" width="32" height="24">
  <data encoding="csv">
0,0,0,0,0,346,0,0,0,0,0,0,0,0,347,0,0,0,0,0,0,0,0,0,0,0,0,0,0,0,0,0,
0,0,0,0,0,362,0,0,0,0,0,0,0,0,363,0,0,0,0,0,0,0,0,0,0,0,0,0,0,0,0,0,
0,0,0,0,0,378,0,0,0,0,0,0,0,0,379,0,0,0,0,0,0,0,0,0,0,0,0,0,0,0,0,0,
0,0,0,0,0,346,0,0,0,0,0,0,0,0,347,0,0,0,0,0,0,0,0,0,0,0,0,0,0,0,0,0,
0,0,0,0,0,362,0,0,0,0,0,0,0,0,363,0,0,0,0,0,0,0,0,0,0,0,0,0,0,0,0,0,
0,0,0,0,0,378,0,0,0,0,0,0,0,0,379,0,0,0,0,0,0,0,0,0,0,0,0,0,0,0,0,0,
0,0,0,0,0,346,0,0,0,0,0,0,0,0,347,0,0,0,0,0,0,0,0,0,0,0,0,0,0,0,0,0,
0,0,0,0,0,362,0,0,0,0,0,0,0,0,363,0,0,0,0,0,0,0,0,0,0,0,0,0,0,0,0,0,
0,0,0,0,0,378,0,0,0,0,0,0,0,0,379,0,0,0,0,0,0,0,0,0,0,0,0,0,0,0,0,0,
0,0,0,0,0,346,0,0,0,0,0,0,0,0,347,0,0,0,0,0,0,0,0,0,0,0,0,0,0,0,0,0,
0,0,0,0,0,362,0,0,0,0,0,0,0,0,363,0,0,0,0,0,0,0,0,0,0,0,0,0,0,0,0,0,
0,0,0,0,0,378,0,0,0,0,0,0,0,0,379,0,0,0,0,0,0,0,0,0,0,0,0,0,0,0,0,0,
0,0,0,0,0,418,419,420,421,85,86,418,419,420,421,0,0,0,0,0,0,0,0,0,0,0,0,0,0,0,0,0,
0,0,0,0,0,434,435,436,437,101,102,434,435,436,437,0,0,0,0,0,0,0,0,0,0,0,0,0,0,0,0,0,
0,0,0,0,0,0,0,0,0,117,118,0,0,0,0,0,0,0,0,0,0,0,0,0,0,0,0,0,0,0,0,0,
0,0,0,0,0,0,0,0,0,0,0,0,0,0,0,0,0,0,0,0,0,0,0,0,0,0,0,0,0,0,0,0,
0,0,0,0,0,0,0,0,0,0,0,0,0,0,0,0,0,0,0,0,0,0,0,0,0,0,0,0,0,0,0,0,
0,0,0,0,0,0,0,0,0,0,0,0,0,0,0,0,0,0,0,0,0,0,0,0,0,0,0,0,0,0,0,0,
0,0,0,0,0,0,0,0,0,0,0,0,0,0,0,0,0,0,0,0,0,0,0,0,0,0,0,0,0,0,0,0,
0,0,0,0,0,0,0,0,0,0,0,0,0,0,0,0,0,0,0,0,0,0,0,0,0,0,0,0,0,0,0,0,
0,0,0,0,0,0,0,0,0,0,0,0,0,0,0,0,0,0,0,0,0,0,0,0,0,0,0,0,0,0,0,0,
0,0,0,0,0,0,0,0,0,0,0,0,0,0,0,0,0,0,0,0,0,0,0,0,0,0,0,0,0,0,0,0,
0,0,0,0,0,0,0,0,0,0,0,0,0,0,0,0,0,0,0,0,0,0,0,0,0,0,0,0,0,0,0,0,
0,0,0,0,0,0,0,0,0,0,0,0,0,0,0,0,0,0,0,0,0,0,0,0,0,0,0,0,0,0,0,0
</data>
 </layer>
 <objectgroup id="10" name="Object Layer 1">
  <properties>
   <property name="collidable" type="bool" value="true"/>
  </properties>
 </objectgroup>
 <layer id="7" name="props" width="32" height="24">
  <properties>
   <property name="collidable" type="bool" value="true"/>
  </properties>
  <data encoding="csv">
0,0,0,0,0,0,0,0,0,0,0,0,0,0,0,0,0,0,0,0,0,0,0,0,0,897,898,899,900,901,0,0,
0,792,792,792,0,0,0,0,0,0,0,0,0,0,0,0,897,898,899,900,901,0,0,0,0,913,914,915,916,917,0,0,
897,898,899,900,901,0,650,651,0,0,0,0,660,0,0,0,913,914,915,916,917,0,0,0,0,929,930,931,932,933,0,0,
913,914,915,916,917,0,666,667,0,0,0,0,0,0,0,0,929,930,931,932,933,0,0,0,0,945,946,947,948,949,0,0,
929,930,931,932,933,701,0,0,653,0,0,0,0,0,0,0,945,946,947,948,949,0,0,0,0,961,962,963,964,965,0,0,
945,946,947,948,949,717,0,0,669,682,683,0,0,0,0,0,961,962,963,964,965,0,732,0,0,0,0,0,732,0,0,0,
961,962,963,964,965,0,0,0,0,698,699,0,0,0,0,0,0,0,0,0,0,0,748,0,780,781,782,0,748,0,0,0,
0,0,0,0,0,0,0,0,0,0,0,0,0,0,0,0,0,0,0,0,0,0,764,0,796,797,798,0,764,0,0,0,
0,0,0,0,0,0,0,794,0,0,0,0,0,794,0,0,0,849,850,0,0,0,0,0,812,813,814,0,0,0,0,0,
0,0,0,0,0,0,0,810,0,0,0,0,0,810,0,0,0,865,866,0,0,0,0,0,0,0,0,996,0,0,0,0,
0,0,0,0,0,0,0,0,0,0,0,0,0,0,0,0,996,0,0,0,0,0,762,0,884,0,0,0,922,923,924,0,
0,0,0,0,0,0,0,0,0,0,0,0,0,0,0,0,0,884,0,0,0,0,778,0,0,0,0,0,938,939,940,0,
0,0,0,0,0,654,655,656,0,0,0,0,654,655,656,0,0,0,0,0,0,0,0,0,0,0,0,0,954,955,956,0,
0,0,0,0,0,670,671,672,0,0,0,0,670,671,672,0,0,1140,1140,0,0,0,0,0,0,0,0,0,970,971,972,0,
0,0,0,0,0,686,687,688,996,0,0,996,686,687,688,0,0,902,903,904,0,0,0,0,0,0,0,0,0,0,0,0,
0,0,0,922,923,924,0,0,0,0,0,0,0,0,0,0,0,918,919,920,0,0,0,0,0,0,0,0,0,0,0,0,
0,0,0,938,939,940,0,0,0,0,0,0,0,0,0,0,0,934,935,936,0,0,0,0,0,0,0,0,0,0,0,0,
0,0,0,954,955,956,0,0,1092,0,0,1092,0,0,756,0,0,950,951,952,0,0,0,0,0,0,0,0,0,0,0,0,
0,0,0,970,971,972,0,0,0,0,0,0,0,0,0,0,0,966,967,968,0,0,0,0,0,0,0,0,0,0,0,0,
0,0,0,0,0,0,0,0,0,0,0,0,0,0,0,0,0,1105,0,0,0,0,0,0,0,994,849,850,0,0,0,0,
0,849,850,0,0,0,0,0,1137,0,0,0,0,0,1105,0,0,0,0,0,0,0,0,922,923,924,865,866,994,0,0,0,
0,865,866,0,0,0,0,0,0,0,0,830,831,0,0,0,0,0,0,0,0,0,0,938,939,940,0,0,0,0,0,0,
0,0,0,0,0,0,0,0,0,0,0,846,847,0,0,0,0,994,0,0,0,0,0,954,955,956,0,0,0,0,0,0,
0,0,0,0,0,0,0,0,0,0,0,0,0,0,0,0,0,0,0,0,0,0,0,970,971,972,0,0,0,0,0,0
</data>
 </layer>
</map>
